!!!COM: Anonymous
!!!COS: Gaspar van Weerbeke
!!!OPR: Missa [sine nomine]
!!!OTL: Agnus
!!!AGN: Mass
!!!SCT: Gas0207e
!!!SCA: Gas0207e
!!!voices: 4
**kern	**text	**kern	**text	**kern	**text	**kern	**text
*part4	*part4	*part3	*part3	*part2	*part2	*part1	*part1
*staff4	*staff4	*staff3	*staff3	*staff2	*staff2	*staff1	*staff1
*I"Bassus	*	*I"Tenor	*	*I"Altus	*	*I"Superius	*
*I'B	*	*I'T	*	*I'A	*	*I'S	*
*clefF4	*	*clefGv2	*	*clefGv2	*	*clefG2	*
*k[b-]	*	*k[b-]	*	*k[b-]	*	*k[b-]	*
*M2/2	*	*M2/2	*	*M2/2	*	*M2/2	*
*met(C|)	*	*met(C|)	*	*met(C|)	*	*met(C|)	*
=1	=1	=1	=1	=1	=1	=1	=1
1r	.	1G	A-	1d	A-	1g	A-
=2	=2	=2	=2	=2	=2	=2	=2
*	*	*lig	*	*	*	*	*
1r	.	2A	-gnus	2c	-gnus	2f	-gnus
.	.	2G	.	2d	.	[2g	De-
*	*	*Xlig	*	*	*	*	*
=3	=3	=3	=3	=3	=3	=3	=3
1r	.	1B-y	De-	2.G	De-	4g]	.
.	.	.	.	.	.	4f	.
*	*	*	*	*	*	*lig	*
.	.	.	.	.	.	2d	.
.	.	.	.	4F	.	.	.
=4	=4	=4	=4	=4	=4	=4	=4
*	*	*lig	*	*lig	*	*	*
1r	.	2c	-i,	2E-i	-i,	2e-i	.
*	*	*	*	*	*	*Xlig	*
.	.	2d	.	2D	.	2f	.
*	*	*Xlig	*	*Xlig	*	*	*
=5	=5	=5	=5	=5	=5	=5	=5
*	*	*	*	*	*edit	*	*
1G	A-	4r	.	2d	A-	2B-y	-i,
*	*	*	*edit	*	*	*	*
.	.	2d	A-	.	.	.	.
.	.	.	.	8B-yL	.	4r	.
.	.	.	.	8c	.	.	.
*	*	*	*	*	*	*	*edit
.	.	4B-y	-gnus	8d	.	[4b-y	A-
.	.	.	.	8eJ	.	.	.
=6	=6	=6	=6	=6	=6	=6	=6
2F	-gnus	2c	De-	2f	.	4b-]	.
.	.	.	.	.	.	4a	-gnus
[2G	De-	2B-y	.	4.d	.	[2b-y	De-
.	.	.	.	8B-y	.	.	.
!!LO:LB:g=original
=7	=7	=7	=7	=7	=7	=7	=7
*	*	*lig	*	*	*	*	*
4G]	.	1d	-i,	4B-y	-gnus	4b-]	.
4F	.	.	.	4.f	De-	8aL	.
.	.	.	.	.	.	8gJ	.
*lig	*	*	*	*	*	*	*
2D	.	.	.	.	.	4f	.
.	.	.	.	8e-i	.	.	.
.	.	.	.	4f	.	[4b-y	.
=8	=8	=8	=8	=8	=8	=8	=8
2E-i	.	1c	.	2g	.	4b-]	.
.	.	.	.	.	.	8aL	.
.	.	.	.	.	.	8gJ	.
*Xlig	*	*Xlig	*	*	*	*	*
2F	.	.	.	2f	.	2a	.
=9	=9	=9	=9	=9	=9	=9	=9
*	*	*lig	*	*	*	*	*
*	*	*	*Xedit	*	*	*	*
2BB-y	-i,	2B-y	qui	1d	-i,	2b-y	-i,
[2D	qui	2A	.	.	.	4r	.
*	*	*	*	*	*	*	*Xedit
.	.	.	.	.	.	[4f	qui
*	*	*Xlig	*	*	*	*	*
=10	=10	=10	=10	=10	=10	=10	=10
*	*	*lig	*	*	*	*	*
2D]	.	2B-y	tol-	2r	.	4f]	.
.	.	.	.	.	.	8eL	.
.	.	.	.	.	.	8dJ	.
*lig	*	*	*	*	*	*	*
*	*	*	*	*	*Xedit	*	*
2C	tol-	2c	.	2G	qui	2e	.
*	*	*Xlig	*	*	*	*	*
=11	=11	=11	=11	=11	=11	=11	=11
2.D	.	2A	.	2F	.	2f	.
*	*	*	*	*	*	*lig	*
.	.	2d	.	8FL	tol-	2b-y	.
.	.	.	.	8G	.	.	.
*	*	*	*	*	*	*lig	*
*Xlig	*	*	*	*	*	*	*
4C	.	.	.	8A	.	.	.
.	.	.	.	8B-yJ	.	.	.
=12	=12	=12	=12	=12	=12	=12	=12
*	*	*lig	*	*	*	*	*
2AA	.	2c	-lis	2c	.	2a	.
*lig	*	*	*	*lig	*	*Xlig	*
2BB-y	.	2B-y	.	2d	-lis	2g	.
!!LO:LB:g=original
=13	=13	=13	=13	=13	=13	=13	=13
2C	.	1A	.	2e-i	.	2g	tol-
*Xlig	*	*Xlig	*	*Xlig	*	*	*
2D	-lis	.	.	2d	pec-	2f#i	.
=14	=14	=14	=14	=14	=14	=14	=14
*	*edit	*	*	*	*	*	*
2.GG	pec-	[1G	pec-	2.B-y	-ca-	2.g	-lis
4AA	.	.	.	4c	.	4f	.
=15	=15	=15	=15	=15	=15	=15	=15
4BB-y	-ca-	2G]	.	4d	.	4d	.
4C	.	.	.	2c	.	2e	pec-
4AA	.	2A	.	.	.	.	.
4D	.	.	.	4A	.	[4f	-ca-
=16	=16	=16	=16	=16	=16	=16	=16
*	*	*lig	*	*	*	*	*
4BB-y	.	2B-y	-ca-	4d	.	4f]	.
4E-i	.	.	.	4B-y	.	2g	-ta
4C	.	2c	.	4e-i	.	.	.
[4F	.	.	.	4c	.	[4a	mun-
*	*	*Xlig	*	*	*	*	*
=17	=17	=17	=17	=17	=17	=17	=17
4F]	.	2.d	-ta	4f	.	4a]	.
4G	.	.	.	4e-j	.	4b-y	.
4F	.	.	.	4f	.	4a	.
*	*	*	*	*	*	*lig	*
*	*	*	*edit	*	*	*	*
4G	.	[4d	mun-	4d	.	[4b-y	.
=18	=18	=18	=18	=18	=18	=18	=18
4D	-ta	4d]	.	2f	.	4b-]	.
4F	.	4c	.	.	.	2a	.
2G	mun-	2B-y	.	2d	-ta	.	.
*	*	*	*	*	*	*Xlig	*
.	.	.	.	.	.	4g	.
=19	=19	=19	=19	=19	=19	=19	=19
2D	-di,	2.A	-di,	2d	mun-	1a	-di,
2r	.	.	.	4c	.	.	.
.	.	[4F	mun-	[4A	.	.	.
!!LO:LB:g=original
=20	=20	=20	=20	=20	=20	=20	=20
*	*	*	*	*	*	*lig	*
*	*	*	*	*	*	*	*edit
1r	.	4F]	.	4A]	.	2a	mun-
.	.	8EL	.	2d	.	.	.
.	.	8DJ	.	.	.	.	.
.	.	2E	.	.	.	2g	.
.	.	.	.	4c#i	.	.	.
*	*	*	*	*	*	*Xlig	*
=21	=21	=21	=21	=21	=21	=21	=21
1r	.	2D	-di,	4d	.	4f	.
*	*	*	*	*col	*	*	*
.	.	.	.	4.D	.	2a	.
.	.	4r	.	.	.	.	.
.	.	.	.	8EL	.	.	.
*	*	*	*	*Xcol	*	*	*
*	*	*	*Xedit	*	*	*	*
.	.	[4d	mun-	8F	.	8gL	.
.	.	.	.	8GJ	.	8fJ	.
=22	=22	=22	=22	=22	=22	=22	=22
2r	.	4d]	.	2A	-di:	2e	.
.	.	4c	.	.	.	.	.
*	*Xedit	*	*	*	*	*	*
4.D	pec-	4B-y	.	2r	.	2d	-di:
.	.	[4d	.	.	.	.	.
8E	.	.	.	.	.	.	.
=23	=23	=23	=23	=23	=23	=23	=23
4F	.	4d]	.	1r	.	4r	.
*	*	*	*	*	*	*	*Xedit
2G	-ca-	8cL	.	.	.	4.dd	mi-
.	.	8B-yJ	.	.	.	.	.
.	.	2A	.	.	.	.	.
.	.	.	.	.	.	8cc	.
4F#i	.	.	.	.	.	4cc	-se-
=24	=24	=24	=24	=24	=24	=24	=24
4G	-ta	2G	-di:	2r	.	4b-y	-re-
4.GG	mun-	.	.	.	.	2dd	-re
.	.	2r	.	4r	.	.	.
8AAL	.	.	.	.	.	.	.
8BB-y	.	.	.	[4g	mi-	8ccL	.
8CJ	.	.	.	.	.	8b-yJ	.
=25	=25	=25	=25	=25	=25	=25	=25
2D	-di:	1r	.	4g]	.	2a	.
.	.	.	.	4f	.	.	.
*	*	*	*	*	*	*	*edit
2r	.	.	.	4e-i	-se-	4.g	no-
.	.	.	.	[4g	-re-	.	.
.	.	.	.	.	.	8a	.
!!LO:PB:g=original
=26	=26	=26	=26	=26	=26	=26	=26
1r	.	1r	.	4g]	.	4b-y	.
.	.	.	.	8fL	.	2cc	.
.	.	.	.	8e-iJ	.	.	.
.	.	.	.	2d	-re	.	.
.	.	.	.	.	.	4b-y	.
=27	=27	=27	=27	=27	=27	=27	=27
*	*	*	*	*	*edit	*	*
1r	.	1r	.	4.c	no-	4a	.
.	.	.	.	.	.	2cc	.
.	.	.	.	8d	.	.	.
.	.	.	.	4e-i	.	.	.
.	.	.	.	[4f	.	8b-yL	.
.	.	.	.	.	.	8aJ	.
=28	=28	=28	=28	=28	=28	=28	=28
1r	.	1r	.	4f]	.	2g	.
.	.	.	.	4e-i	.	.	.
.	.	.	.	4d	.	4.f	.
.	.	.	.	[4f	.	.	.
.	.	.	.	.	.	8g	.
=29	=29	=29	=29	=29	=29	=29	=29
2r	.	1r	.	4f]	.	4a	.
.	.	.	.	8e-iL	.	2b-y	.
.	.	.	.	8dJ	.	.	.
2F	mi-	.	.	2c	.	.	.
.	.	.	.	.	.	4a	.
=30	=30	=30	=30	=30	=30	=30	=30
2.G	-se-	1d	mi-	1B-y	-bis,	2b-y	-bis,
.	.	.	.	.	.	2r	.
8FL	.	.	.	.	.	.	.
8E-jJ	.	.	.	.	.	.	.
=31	=31	=31	=31	=31	=31	=31	=31
*	*	*	*	*lig	*	*	*
4D	.	4d	-se-	2d	mi-	4.b-y	mi-
2G	-re-	2B-y	-re-	.	.	.	.
.	.	.	.	.	.	8a	.
.	.	.	.	2e-i	.	4b-y	-se-
4C	.	4G	.	.	.	[4cc	-re-
*	*	*	*	*Xlig	*	*	*
!!LO:LB:g=original
=32	=32	=32	=32	=32	=32	=32	=32
*lig	*	*	*	*lig	*	*	*
2F	-re	2A	-re	2c	-se-	4cc]	.
.	.	.	.	.	.	2a	-re
*	*	*lig	*	*	*	*	*
2D	.	2F	no-	2d	.	.	.
*	*	*	*	*Xlig	*	*lig	*Xedit
.	.	.	.	.	.	[4b-y	no-
*Xlig	*	*	*	*	*	*	*
=33	=33	=33	=33	=33	=33	=33	=33
*lig	*	*	*	*lig	*	*	*
2E-i	no-	2G	.	2B-y	-re-	4b-]	.
.	.	.	.	.	.	2g	.
*	*	*	*	*	*	*Xlig	*
*	*	*Xlig	*	*	*	*	*
*	*	*	*	*	*	*lig	*
2C	.	2E	.	2c	.	.	.
.	.	.	.	.	.	[4a	.
*Xlig	*	*	*	*Xlig	*	*	*
=34	=34	=34	=34	=34	=34	=34	=34
*lig	*	*lig	*	*lig	*	*	*
2D	.	2F	.	2A	-re	4a]	.
.	.	.	.	.	.	2f	.
*	*	*	*	*	*	*Xlig	*
2BB-y	.	2D	.	2B-y	.	.	.
.	.	.	.	.	.	[4g	.
*Xlig	*	*Xlig	*	*Xlig	*	*	*
=35	=35	=35	=35	=35	=35	=35	=35
*lig	*	*	*	*	*	*	*
*	*	*	*	*	*Xedit	*	*
2C	.	4E	.	2G	no-	4g]	.
.	.	4C	.	.	.	4.e	.
2AA	.	2c	.	4A	.	.	.
.	.	.	.	.	.	8f	.
.	.	.	.	4c	.	[4a	.
*Xlig	*	*	*	*	*	*	*
=36	=36	=36	=36	=36	=36	=36	=36
4BB-y	.	4d	.	4B-y	.	4a]	.
4GG	.	4B-y	.	2.d	.	2g	.
2D	.	2A	.	.	.	.	.
.	.	.	.	.	.	4f#i	.
=37	=37	=37	=37	=37	=37	=37	=37
0GG	-bis.	0G	-bis.	0d	-bis.	0g	-bis.
!!LO:LB:g=original
=38||	=38||	=38||	=38||	=38||	=38||	=38||	=38||
*M2/2	*	*M2/2	*	*M2/2	*	*M2/2	*
*met(C|)	*	*met(C|)	*	*met(C|)	*	*met(C|)	*
2D	A-	2D	A-	1r	.	1r	.
4C	.	4E	.	.	.	.	.
[4D	-gnus	[4F	-gnus	.	.	.	.
=39	=39	=39	=39	=39	=39	=39	=39
4D]	.	4F]	.	1r	.	1r	.
8CL	.	8EL	.	.	.	.	.
8BB-yJ	.	8DJ	.	.	.	.	.
4C	.	4E	.	.	.	.	.
4BB-y	.	[4D	.	.	.	.	.
=40	=40	=40	=40	=40	=40	=40	=40
*lig	*	*	*	*	*	*	*
2GG	De-	4D]	.	1r	.	1r	.
*	*	*	*edit	*	*	*	*
.	.	2G	De-	.	.	.	.
2AA	.	.	.	.	.	.	.
.	.	4F#i	.	.	.	.	.
*Xlig	*	*	*	*	*	*	*
=41	=41	=41	=41	=41	=41	=41	=41
4GG	-i,	2G	-i,	1r	.	1r	.
*	*edit	*	*	*	*	*	*
4G	A-	.	.	.	.	.	.
4F	.	4A	A-	.	.	.	.
[4G	.	[4B-y	.	.	.	.	.
=42	=42	=42	=42	=42	=42	=42	=42
4G]	.	4B-]	.	1r	.	1r	.
8FL	.	8AL	.	.	.	.	.
8EJ	.	8GJ	.	.	.	.	.
4F	.	4A	.	.	.	.	.
4E	.	[4G	.	.	.	.	.
=43	=43	=43	=43	=43	=43	=43	=43
*lig	*	*	*	*	*	*	*
2C	-gnus	4G]	.	1r	.	1r	.
.	.	2c	.	.	.	.	.
2D	.	.	.	.	.	.	.
.	.	4Bni	.	.	.	.	.
*Xlig	*	*	*	*	*	*	*
!!LO:LB:g=original
=44	=44	=44	=44	=44	=44	=44	=44
8CL	.	4.c	-gnus	1r	.	1r	.
8BB-y	.	.	.	.	.	.	.
8AA	.	.	.	.	.	.	.
8GGJ	.	8B-y	.	.	.	.	.
[2D	.	8AL	.	.	.	.	.
.	.	8GJ	.	.	.	.	.
.	.	4B-y	.	.	.	.	.
=45	=45	=45	=45	=45	=45	=45	=45
4D]	.	4A	.	1r	.	1r	.
*	*	*	*Xedit	*	*	*	*
4BB-y	.	2G	De-	.	.	.	.
2AA	De-	.	.	.	.	.	.
.	.	4F#i	.	.	.	.	.
=46	=46	=46	=46	=46	=46	=46	=46
2GG	-i,	2G	-i,	2d	Qui	2d	Qui
2r	.	2r	.	4c	.	4e	.
.	.	.	.	[4d	tol-	[4f	tol-
=47	=47	=47	=47	=47	=47	=47	=47
1r	.	1r	.	4d]	.	4f]	.
.	.	.	.	8cL	.	8eL	.
.	.	.	.	8B-yJ	.	8dJ	.
.	.	.	.	4c	.	4e	.
.	.	.	.	4B-y	.	[4d	.
=48	=48	=48	=48	=48	=48	=48	=48
*	*	*	*	*lig	*	*	*
1r	.	1r	.	2G	.	4d]	.
.	.	.	.	.	.	2g	.
.	.	.	.	2A	.	.	.
.	.	.	.	.	.	4f#i	.
*	*	*	*	*Xlig	*	*	*
=49	=49	=49	=49	=49	=49	=49	=49
*	*	*	*	*	*	*	*edit
1r	.	1r	.	4G	-lis,	2g	-lis,
*	*	*	*	*	*edit	*	*
.	.	.	.	4g	qui	.	.
.	.	.	.	4f	.	4a	qui
.	.	.	.	[4g	tol-	[4b-y	tol-
!!LO:PB:g=original
=50	=50	=50	=50	=50	=50	=50	=50
1r	.	1r	.	4g]	.	4b-]	.
.	.	.	.	8fL	.	8aL	.
.	.	.	.	8eJ	.	8gJ	.
.	.	.	.	4f	.	4a	.
.	.	.	.	4e	.	[4g	.
=51	=51	=51	=51	=51	=51	=51	=51
*	*	*	*	*lig	*	*	*
1r	.	1r	.	2c	.	4g]	.
.	.	.	.	.	.	2cc	.
.	.	.	.	2d	.	.	.
.	.	.	.	.	.	4bni	.
*	*	*	*	*Xlig	*	*	*
=52	=52	=52	=52	=52	=52	=52	=52
1r	.	1r	.	8cL	.	4.cc	.
.	.	.	.	8B-y	.	.	.
.	.	.	.	8A	.	.	.
.	.	.	.	8GJ	.	8b-y	.
.	.	.	.	[2d	.	8aL	.
.	.	.	.	.	.	8gJ	.
.	.	.	.	.	.	4b-y	.
=53	=53	=53	=53	=53	=53	=53	=53
1r	.	1r	.	4d]	.	4a	.
.	.	.	.	4B-y	.	2g	.
.	.	.	.	2A	.	.	.
.	.	.	.	.	.	4f#i	.
=54	=54	=54	=54	=54	=54	=54	=54
*	*	*	*	*	*	*	*Xedit
1r	.	4r	.	2G	-lis	1g	-lis
.	.	4.G	pec-	.	.	.	.
.	.	.	.	2r	.	.	.
.	.	8AL	.	.	.	.	.
.	.	8B-y	.	.	.	.	.
.	.	8cJ	.	.	.	.	.
!!LO:LB:g=original
=55	=55	=55	=55	=55	=55	=55	=55
*	*Xedit	*	*	*	*	*	*
2GG	pec-	2.d	-ca-	1r	.	1r	.
8GGL	-ca-	.	.	.	.	.	.
8AA	.	.	.	.	.	.	.
8BB-y	.	8cL	.	.	.	.	.
8CJ	.	8B-yJ	.	.	.	.	.
=56	=56	=56	=56	=56	=56	=56	=56
2.D	.	2A	.	1r	.	1r	.
.	.	2B-y	.	.	.	.	.
4C	.	.	.	.	.	.	.
=57	=57	=57	=57	=57	=57	=57	=57
*lig	*	*	*	*	*	*	*
2AA	.	2c	.	1r	.	1r	.
2BB-y	.	4B-y	.	.	.	.	.
.	.	[4G	.	.	.	.	.
*Xlig	*	*	*	*	*	*	*
=58	=58	=58	=58	=58	=58	=58	=58
2C	.	4G]	.	1r	.	1r	.
.	.	8FL	.	.	.	.	.
.	.	8EJ	.	.	.	.	.
4BB-y	.	4D	.	.	.	.	.
4D	.	4F	.	.	.	.	.
=59	=59	=59	=59	=59	=59	=59	=59
8E-iL	.	4G	.	1r	.	1r	.
8D	.	.	.	.	.	.	.
8C	.	2B-y	.	.	.	.	.
8BB-yJ	.	.	.	.	.	.	.
2C	.	.	.	.	.	.	.
.	.	4A	.	.	.	.	.
=60	=60	=60	=60	=60	=60	=60	=60
2BB-y	-ta	2B-y	-ta	4r	.	4r	.
.	.	.	.	2d	mun-	2b-y	mun-
2r	.	2r	.	.	.	.	.
.	.	.	.	8cL	.	8aL	.
.	.	.	.	8B-yJ	.	8gJ	.
!!LO:LB:g=original
=61	=61	=61	=61	=61	=61	=61	=61
1r	.	1r	.	2c	.	2a	.
.	.	.	.	4d	.	4f	.
.	.	.	.	4e-i	.	[4g	.
=62	=62	=62	=62	=62	=62	=62	=62
2r	.	2r	.	2c	.	4g]	.
.	.	.	.	.	.	8fL	.
.	.	.	.	.	.	8e-iJ	.
4r	.	4r	.	2B-y	-di,	2d	-di:
*	*edit	*	*	*	*	*	*
[4G	mun-	[4B-y	mun-	.	.	.	.
=63	=63	=63	=63	=63	=63	=63	=63
4G]	.	4B-]	.	1r	.	1r	.
8FL	.	8AL	.	.	.	.	.
8EJ	.	8GJ	.	.	.	.	.
2F	.	2A	.	.	.	.	.
=64	=64	=64	=64	=64	=64	=64	=64
4D	.	4F	.	1r	.	1r	.
4E-i	.	2G	.	.	.	.	.
2C	.	.	.	.	.	.	.
.	.	8FL	.	.	.	.	.
.	.	8E-iJ	.	.	.	.	.
=65	=65	=65	=65	=65	=65	=65	=65
4BB-y	-di,	2D	-di:	4r	.	1r	.
*	*Xedit	*	*	*	*Xedit	*	*
2D	mun-	.	.	2B-y	mun-	.	.
.	.	2r	.	.	.	.	.
8CL	.	.	.	8AL	.	.	.
8BB-yJ	.	.	.	8GJ	.	.	.
=66	=66	=66	=66	=66	=66	=66	=66
4C	.	1r	.	4A	.	1r	.
4BB-y	.	.	.	2G	.	.	.
2AA	.	.	.	.	.	.	.
.	.	.	.	4F#i	.	.	.
!!LO:LB:g=original
=67	=67	=67	=67	=67	=67	=67	=67
2GG	-di:	4r	.	2G	-di,	4.b-y	mi-
.	.	4G	mi-	.	.	.	.
.	.	.	.	.	.	8a	.
2r	.	4.B-y	-se-	2r	.	4.f	-se-
.	.	8A	.	.	.	8g	.
=68	=68	=68	=68	=68	=68	=68	=68
1r	.	4.F	.	1r	.	4.a	-re-
.	.	8G	.	.	.	8g	.
.	.	4.A	-re-	.	.	4.e	-re
.	.	8G	.	.	.	8f	.
=69	=69	=69	=69	=69	=69	=69	=69
*	*	*	*	*	*	*	*edit
1r	.	4.E	.	1r	.	4.g	no-
.	.	8F	.	.	.	8f	.
.	.	4G	-re	.	.	4d	.
.	.	4F	.	.	.	[4f	.
=70	=70	=70	=70	=70	=70	=70	=70
2r	.	4D	.	1r	.	4f]	.
*	*	*	*edit	*	*	*	*
.	.	2d	no-	.	.	8eL	.
.	.	.	.	.	.	8dJ	.
[2A	mi-	.	.	.	.	2e	.
.	.	4c#i	.	.	.	.	.
=71	=71	=71	=71	=71	=71	=71	=71
4A]	.	2d	-bis,	4.D	mi-	2d	-bis,
2F	-se-	.	.	.	.	.	.
.	.	.	.	8E	.	.	.
.	.	2r	.	8FL	.	2r	.
.	.	.	.	8G	.	.	.
8EL	.	.	.	8A	.	.	.
8DJ	.	.	.	8B-yJ	.	.	.
=72	=72	=72	=72	=72	=72	=72	=72
2.C	-re-	1r	.	4.A	-se-	1r	.
.	.	.	.	16GLL	.	.	.
.	.	.	.	16FJJ	.	.	.
.	.	.	.	8EL	.	.	.
.	.	.	.	8DJ	.	.	.
[4D	.	.	.	[4B-y	-re-	.	.
!!LO:PB:g=original
=73	=73	=73	=73	=73	=73	=73	=73
4D]	.	1r	.	8B-L]	.	1r	.
.	.	.	.	8AJ	.	.	.
8CL	.	.	.	2G	-re	.	.
8BB-yJ	.	.	.	.	.	.	.
2AA	.	.	.	.	.	.	.
.	.	.	.	4F#i	.	.	.
=74	=74	=74	=74	=74	=74	=74	=74
*	*	*	*Xedit	*	*edit	*	*Xedit
2GG	-re	2B-y	no-	2G	no-	4.d	no-
.	.	.	.	.	.	8e	.
4r	.	4A	.	2D	-bis,	8fL	.
.	.	.	.	.	.	8g	.
[4D	no-	[4F	.	.	.	8a	.
.	.	.	.	.	.	8b-yJ	.
=75	=75	=75	=75	=75	=75	=75	=75
8DL]	.	8FL]	.	2r	.	4.a	.
8EJ	.	8G	.	.	.	.	.
4F	.	8A	.	.	.	.	.
.	.	8B-yJ	.	.	.	8g	.
*	*	*	*	*	*Xedit	*	*
*	*	*	*	*col	*	*	*
4C	.	4c	.	4.G	no-	8eL	.
.	.	.	.	.	.	8dJ	.
[4G	.	4B-y	.	.	.	[4b-y	.
.	.	.	.	8A	.	.	.
*	*	*	*	*Xcol	*	*	*
=76	=76	=76	=76	=76	=76	=76	=76
*	*	*lig	*	*	*	*	*
8GL]	.	2G	.	4B-y	.	8b-L]	.
8DJ	.	.	.	.	.	8aJ	.
4E-i	.	.	.	4c	.	2g	.
2D	.	2A	.	2d	.	.	.
.	.	.	.	.	.	4f#i	.
*	*	*Xlig	*	*	*	*	*
=77	=77	=77	=77	=77	=77	=77	=77
0GG	-bis.	0G	-bis.	0d	-bis.	0g	-bis.
!!LO:LB:g=original
=78||	=78||	=78||	=78||	=78||	=78||	=78||	=78||
*M2/2	*	*M2/2	*	*M2/2	*	*M2/2	*
*met(C|)	*	*met(C|)	*	*met(C|)	*	*met(C|)	*
1r	.	1r	.	1D	A-	1r	.
=79	=79	=79	=79	=79	=79	=79	=79
1r	.	1r	.	2E	-gnus	2r	.
.	.	.	.	4.D	De-	[2d	A-
.	.	.	.	8E	.	.	.
=80	=80	=80	=80	=80	=80	=80	=80
1r	.	1r	.	4F	.	2d]	.
.	.	.	.	2G	.	.	.
.	.	.	.	.	.	2e	-gnus
.	.	.	.	4A	.	.	.
=81	=81	=81	=81	=81	=81	=81	=81
1r	.	1r	.	2B-y	.	4.d	De-
.	.	.	.	.	.	8e	.
.	.	.	.	4A	.	4f	.
.	.	.	.	[4G	.	[4g	.
=82	=82	=82	=82	=82	=82	=82	=82
1r	.	2r	.	8GL]	.	4g]	.
.	.	.	.	8EJ	.	.	.
.	.	.	.	4F	.	4a	.
.	.	[2G	A-	2G	-i,	[2b-y	.
=83	=83	=83	=83	=83	=83	=83	=83
*	*	*	*	*lig	*	*	*
*	*	*	*	*	*edit	*	*
1r	.	2G]	.	2B-y	A-	4b-]	.
.	.	.	.	.	.	2g	.
.	.	2A	-gnus	2c	.	.	.
.	.	.	.	.	.	4f#i	.
*	*	*	*	*Xlig	*	*	*
!!LO:LB:g=original
=84	=84	=84	=84	=84	=84	=84	=84
*	*	*lig	*	*	*	*	*
1GG	A-	2G	De-	2.d	-gnus	2g	-i,
.	.	2B-y	.	.	.	4r	.
.	.	.	.	4c	.	4g	qui
*	*	*Xlig	*	*	*	*	*
=85	=85	=85	=85	=85	=85	=85	=85
2AA	-gnus	2c	.	2A	De-	2cc	tol-
*lig	*	*	*	*	*	*	*
2GG	De-	[2d	.	[2B-y	-i,	[2b-y	.
=86	=86	=86	=86	=86	=86	=86	=86
2BB-y	.	2d]	.	2B-]	.	4b-]	.
.	.	.	.	.	.	2g	.
*Xlig	*	*	*	*	*	*	*
*	*	*	*	*	*Xedit	*	*
2C	.	2c	.	2e-i	qui	.	.
.	.	.	.	.	.	8fL	.
.	.	.	.	.	.	8e-jJ	.
=87	=87	=87	=87	=87	=87	=87	=87
[1D	-i,	1A	-i,	2.d	tol-	2.f	.
.	.	.	.	4e-i	.	4g	.
=88	=88	=88	=88	=88	=88	=88	=88
*	*	*	*edit	*	*	*	*
2D]	.	2d	A-	4f	.	4a	.
.	.	.	.	4F	.	4b-y	.
*	*edit	*	*	*	*	*	*
2E-i	qui	8cL	-gnus	2G	.	2cc	-lis,
.	.	8B-y	.	.	.	.	.
.	.	8A	.	.	.	.	.
.	.	8GJ	.	.	.	.	.
=89	=89	=89	=89	=89	=89	=89	=89
*	*	*	*	*	*	*lig	*
*	*	*	*	*	*	*	*edit
4D	tol-	4F	.	4A	.	2dd	qui
4BB-y	.	2B-y	De-	4B-y	.	.	.
2F	-lis,	.	.	2c	.	2cc	.
.	.	4A	.	.	.	.	.
*	*	*	*	*	*	*Xlig	*
!!LO:LB:g=original
=90	=90	=90	=90	=90	=90	=90	=90
2r	.	2B-y	-i,	4.d	.	4.f	tol-
.	.	.	.	8e	.	8g	.
*	*	*lig	*	*	*	*	*
*	*Xedit	*	*Xedit	*	*	*	*
2F	qui	2A	qui	2f	-lis	2a	.
=91	=91	=91	=91	=91	=91	=91	=91
2G	tol-	2B-y	.	4r	.	2d	.
.	.	.	.	4d	pec-	.	.
*	*	*Xlig	*	*	*	*	*
2C	-lis	2c	.	2e-i	-ca-	[2g	.
=92	=92	=92	=92	=92	=92	=92	=92
*	*edit	*	*	*	*	*	*
2D	pec-	1A	tol-	1d	-ta	2g]	.
2D	-ca-	.	.	.	.	2f#i	.
=93	=93	=93	=93	=93	=93	=93	=93
*	*	*	*	*	*edit	*	*
4.GG	-ta	[1G	-lis	4.B-y	mun-	1g	-lis
8AA	.	.	.	8c	.	.	.
4BB-y	.	.	.	4d	.	.	.
[4C	mun-	.	.	[4e-X	.	.	.
=94	=94	=94	=94	=94	=94	=94	=94
4C]	.	1G_	.	4e-]	.	4r	.
*	*	*	*	*	*	*	*Xedit
4BB-y	.	.	.	4d	.	2g	pec-
2C	.	.	.	2c	.	.	.
.	.	.	.	.	.	8fL	.
.	.	.	.	.	.	8e-iJ	.
=95	=95	=95	=95	=95	=95	=95	=95
[1GG	-di,	1G_	.	4.B-y	.	4d	.
.	.	.	.	.	.	4e-i	.
.	.	.	.	8c	.	.	.
.	.	.	.	4d	.	4d	.
.	.	.	.	4e-i	.	[4g	-ca-
!!LO:PB:g=original
=96	=96	=96	=96	=96	=96	=96	=96
1GG]	.	1G]	.	4d	.	4g]	.
.	.	.	.	2g	.	8fL	.
.	.	.	.	.	.	8e-iJ	.
.	.	.	.	.	.	4e-i	-ta
.	.	.	.	8fL	.	8dL	.
.	.	.	.	8e-iJ	.	8cJ	.
=97	=97	=97	=97	=97	=97	=97	=97
1r	.	[1G	pec-	4e-i	.	4B-y	.
.	.	.	.	8dL	.	4e-i	.
.	.	.	.	8cJ	.	.	.
.	.	.	.	4B-y	.	4d	.
*	*	*	*	*	*	*	*edit
.	.	.	.	[4e-i	.	[4g	mun-
=98	=98	=98	=98	=98	=98	=98	=98
*	*Xedit	*	*	*	*	*	*
2C	pec-	1G_	.	8e-L]	.	8gL]	.
.	.	.	.	8dJ	.	8fJ	.
.	.	.	.	2g	.	4e-i	.
4BB-y	.	.	.	.	.	4d	.
4C	.	.	.	8fL	.	[4c	.
.	.	.	.	8e-iJ	.	.	.
=99	=99	=99	=99	=99	=99	=99	=99
*lig	*	*	*	*	*	*	*
2GG	-ca-	1G]	.	2d	.	4c]	.
.	.	.	.	.	.	4Bni	.
2C	.	.	.	2c	-di,	2c	-di,
*Xlig	*	*	*	*	*	*	*
=100	=100	=100	=100	=100	=100	=100	=100
*	*	*	*	*	*	*	*Xedit
4.BB-y	-ta	4.B-y	-ca-	4r	.	4.d	mun-
*	*	*	*	*	*Xedit	*	*
.	.	.	.	2F	mun-	.	.
8C	.	8A	.	.	.	8e	.
4D	.	4F	.	.	.	4f	.
*	*edit	*	*	*	*	*	*
[4C	mun-	[4G	.	[4c	.	[4e	.
=101	=101	=101	=101	=101	=101	=101	=101
4C]	.	8GL]	.	8cL]	.	4e]	.
.	.	8F	.	8B-Jy	.	.	.
4D	.	8E	.	2.A	.	2d	.
.	.	8DJ	.	.	.	.	.
2AA	-di,	2E	.	.	.	.	.
.	.	.	.	.	.	4c#i	.
!!LO:LB:g=original
=102	=102	=102	=102	=102	=102	=102	=102
*	*	*lig	*	*	*	*	*
2BB-y	pec-	2D	-ta	2F	-di,	2.d	-di,
*	*	*	*	*	*edit	*	*
4GG	.	2G	.	4B-y	pec-	.	.
*	*	*	*	*	*	*	*edit
[4C	-ca-	.	.	4G	.	[4e	mun-
*	*	*Xlig	*	*	*	*	*
=103	=103	=103	=103	=103	=103	=103	=103
*	*	*	*edit	*	*	*	*
4C]	.	2A	mun-	4c	-ca-	8eL]	.
.	.	.	.	.	.	8cJ	.
2D	.	.	.	4A	.	4.f	.
.	.	[2B-y	.	8dL	.	.	.
.	.	.	.	8c	.	8d	.
[4E-i	-ta	.	.	8B-y	.	[4g	.
.	.	.	.	8AJ	.	.	.
=104	=104	=104	=104	=104	=104	=104	=104
8E-L]	.	2B-]	.	4G	.	8gL]	.
8DJ	.	.	.	.	.	8fJ	.
4BB-y	.	.	.	2F	.	4d	.
2C	mun-	2A	.	.	.	2e-i	-di,
.	.	.	.	4E-i	.	.	.
=105	=105	=105	=105	=105	=105	=105	=105
*	*	*	*	*	*	*	*Xedit
4.BB-y	-di,	1B-y	-di,	4F	-ta	4.d	pec-
.	.	.	.	2f	mun-	.	.
8C	.	.	.	.	.	8e-j	.
4D	.	.	.	.	.	4f	.
[4E-i	.	.	.	4e-i	.	[4g	-ca-
=106	=106	=106	=106	=106	=106	=106	=106
4E-]	.	2c	pec-	4c	.	8gL]	.
.	.	.	.	.	.	8eJ	.
4F	pec-	.	.	2f	.	4.a	.
4D	.	4d	.	.	.	.	.
.	.	.	.	.	.	8f	.
4G	.	4B-y	.	4e	.	[4b-y	.
=107	=107	=107	=107	=107	=107	=107	=107
2F	-ca-	2c	.	2f	-di,	4b-]	.
.	.	.	.	.	.	4a	-ta
*	*	*lig	*	*	*	*	*
4.G	-ta	2B-y	-ca-	4.d	mun-	4.b-y	mun-
8F	.	.	.	8e	.	8a	.
!!LO:LB:g=original
=108	=108	=108	=108	=108	=108	=108	=108
4D	.	2.d	.	4f	.	4f	.
*	*	*	*	*	*	*lig	*
2G	mun-	.	.	4d	.	2b-y	.
.	.	.	.	4g	.	.	.
*	*	*Xlig	*	*	*	*	*
4A	.	[4c	-ta	4e	.	[4a	.
=109	=109	=109	=109	=109	=109	=109	=109
4F	.	4c]	.	4f	.	4a]	.
*	*	*	*	*	*	*Xlig	*
4G	.	4B-y	.	2.d	.	2g	.
*	*	*	*Xedit	*	*	*	*
2D	-di,	2A	mun-	.	.	.	.
.	.	.	.	.	.	4f#i	.
=110	=110	=110	=110	=110	=110	=110	=110
2r	.	1G	-di:	2B-y	-di,	1g	-di:
2G	pec-	.	.	2r	.	.	.
=111	=111	=111	=111	=111	=111	=111	=111
*	*	*	*	*	*Xedit	*	*
2F	.	1r	.	2d	pec-	1r	.
[2E-X	-ca-	.	.	4c	.	.	.
.	.	.	.	[4B-y	-ca-	.	.
=112	=112	=112	=112	=112	=112	=112	=112
2E-]	.	1r	.	4B-]	.	1r	.
.	.	.	.	8AL	.	.	.
.	.	.	.	8GJ	.	.	.
2D	-ta	.	.	8FL	.	.	.
.	.	.	.	8G	.	.	.
.	.	.	.	8A	.	.	.
.	.	.	.	8B-yJ	.	.	.
=113	=113	=113	=113	=113	=113	=113	=113
*	*Xedit	*	*	*	*	*	*
1C	mun-	1r	.	4c	-ta	1r	.
.	.	.	.	2B-y	mun-	.	.
.	.	.	.	4A	.	.	.
!!LO:LB:g=original
=114	=114	=114	=114	=114	=114	=114	=114
*M3/2	*	*M3/2	*	*M3/2	*	*M3/2	*
*met(O)	*	*met(O)	*	*met(O)	*	*met(O)	*
!!LO:TX:a:t=[C |3]
!!LO:TX:t=[whole]=[whole-dot]
1BB-y	-di:	2.d	do-	1B-y	-di,	1.r	.
.	.	4B-y	.	.	.	.	.
2r	.	2c	-na	2r	.	.	.
=115	=115	=115	=115	=115	=115	=115	=115
1.r	.	2.B-y	no-	1.r	.	2.dd	do-
.	.	4A	.	.	.	4b-y	.
.	.	2F	-bis	.	.	2cc	-na
=116	=116	=116	=116	=116	=116	=116	=116
1.r	.	2.G	pa-	1.r	.	2.b-y	no-
.	.	4A	.	.	.	4a	.
.	.	4B-y	.	.	.	2g	-bis
.	.	4c	.	.	.	.	.
=117	=117	=117	=117	=117	=117	=117	=117
*	*	*	*	*	*	*	*edit
1.r	.	2.d	.	1.r	.	4f	pa-
.	.	.	.	.	.	4g	.
.	.	.	.	.	.	4a	.
.	.	4c	.	.	.	4b-y	.
.	.	2A	.	.	.	2cc	.
=118	=118	=118	=118	=118	=118	=118	=118
*	*	*lig	*	*	*	*	*
1.r	.	2B-y	.	1.r	.	1b-y	.
.	.	1c	.	.	.	.	.
.	.	.	.	.	.	2a	.
*	*	*Xlig	*	*	*	*	*
=119	=119	=119	=119	=119	=119	=119	=119
1.r	.	1B-y	-cem,	2.f	do-	1b-y	-cem,
.	.	.	.	4d	.	.	.
.	.	2r	.	2e-i	-na	2r	.
!!LO:PB:g=original
=120	=120	=120	=120	=120	=120	=120	=120
1G	do-	1.r	.	2.d	no-	1.r	.
.	.	.	.	4B-y	.	.	.
2F	-na	.	.	2A	-bis	.	.
=121	=121	=121	=121	=121	=121	=121	=121
*	*	*	*	*	*edit	*	*
2.E-X	no-	1.r	.	2.G	pa-	1.r	.
4D	.	.	.	8FL	.	.	.
.	.	.	.	8E-iJ	.	.	.
4.BB-y	-bis	.	.	4.D	.	.	.
8C	.	.	.	8E-i	.	.	.
=122	=122	=122	=122	=122	=122	=122	=122
*	*edit	*	*	*	*	*	*
4D	pa-	1.r	.	8FL	.	1.r	.
.	.	.	.	8GJ	.	.	.
*	*	*	*	*lig	*	*	*
2C	.	.	.	2A	.	.	.
4BB-y	.	.	.	2G	.	.	.
2AA	.	.	.	.	.	.	.
*	*	*	*	*Xlig	*	*	*
.	.	.	.	4F#i	.	.	.
=123	=123	=123	=123	=123	=123	=123	=123
1GG	-cem,	2.B-y	do-	1G	-cem,	2.g	do-
.	.	4A	.	.	.	4f	.
2r	.	4F	-na	2r	.	4.d	-na
.	.	4B-y	.	.	.	.	.
.	.	.	.	.	.	8e	.
=124	=124	=124	=124	=124	=124	=124	=124
1.r	.	4A	no-	1.r	.	8fL	.
.	.	.	.	.	.	8gJ	.
*	*	*	*	*	*	*lig	*
.	.	2c	.	.	.	2a	no-
.	.	4B-y	.	.	.	2g	.
.	.	2A	.	.	.	.	.
*	*	*	*	*	*	*Xlig	*
.	.	.	.	.	.	4f#i	.
!!LO:LB:g=original
=125	=125	=125	=125	=125	=125	=125	=125
*	*	*	*	*	*	*lig	*
2r	.	2.G	-bis	2r	.	2g	-bis
2r	.	.	.	2r	.	2.b-y	.
.	.	4A	.	.	.	.	.
*	*Xedit	*	*	*	*Xedit	*	*
2G	pa-	4B-y	.	4d	pa-	.	.
*	*	*	*	*	*	*Xlig	*
.	.	4c	.	4e	.	4a	.
=126	=126	=126	=126	=126	=126	=126	=126
*	*	*	*	*	*	*	*Xedit
2.D	.	1d	.	4f	.	2.f	pa-
.	.	.	.	4g	.	.	.
.	.	.	.	1a	.	.	.
4E	.	.	.	.	.	4g	.
2F	.	2c	.	.	.	4a	.
.	.	.	.	.	.	4b-y	.
=127	=127	=127	=127	=127	=127	=127	=127
2C	.	2e-X	pa-	2g	.	2cc	.
4D	.	4d	.	4f	.	4b-y	.
2F	.	2c	.	2f	.	2a	.
4G	.	4B-y	.	4e-i	.	4g	.
=128	=128	=128	=128	=128	=128	=128	=128
2E-i	.	2G	.	2c	.	1g	.
1D	.	1A	.	1d	.	.	.
.	.	.	.	.	.	2f#i	.
=129	=129	=129	=129	=129	=129	=129	=129
0GGl	-cem.	0Gl	-cem.	0dl	-cem.	0gl	-cem.
==	==	==	==	==	==	==	==
*-	*-	*-	*-	*-	*-	*-	*-
!!!system-decoration: [*]
!!!Xfilter: gasparize
!!!RDF**kern: j = editorial accidental, optional, paren up
!!!RDF**kern: i = editorial accidental
!!!RDF**kern: l = terminal long
!!!PTL: Gaspar van Weerbeke: Collected Works. II. Masses, Part 2
!!!PPR: American Institute of Musicology
!!!PC#: Corpus Mensurabilis Musicae 106/II.2
!!!PDT: 2018
!!!PED: Kolb, Paul
!!!YEC: Copyright 2016, Kolb, Paul
!!!YEM: CC-BY-NC 4.0 (https://creativecommons.org/licenses/by-nc/4.0/legalcode)
!!!EED: Zybina, Karina
!!!EEV: 2021/12/01
